X:1
T:Kost ar c'hoat : B
Z:Roger Ngaret (94-95)
R:kostarchoat
C:Trad.
S:
A:Bretagne
M:4/4
L:1/8
K:Eb
g |: gf ec de fg | ag fe b2 bg |
gf ec de fg |1 ag fg e2 eg :|2
ag fg e2 e2 |: e2 c2 cB f2 |
ga b2 ba ge | fg ag fe g2 |1 fe df e2 e2 :|2 
fe df e2 e |]
